assets/karma/plain.svg

<svg viewBox="0 0 128 128" xmlns="http://www.w3.org/2000/svg"><path d="m77.281 89.582 19.625 37.84h31.02l-35.153-67.14zm-62.535 20.29 14.367-17.497 22.973 35.047-14.746-70.3-12.45 26.472-10.144 26.277m0 0 22.594-52.754-14.363 17.508-22.977-35.05zm110.224-109.48h-31.02l-19 36.285v-36.286h-28.458v37.632l15.172 72.282 3.535 17.117h9.75v-31.757z" fill="#56c5a8"/></svg>

<svg xmlns="http://www.w3.org/2000/svg" viewBox="0 0 128 128"><path fill="#56c5a8" d="m77.281 89.582 19.625 37.84h31.02l-35.153-67.14zm-62.535 20.29 14.367-17.497 22.973 35.047-14.746-70.3-12.45 26.472-10.144 26.277m0 0L37.34 57.117 22.977 74.625 0 39.575zM124.97.391H93.95l-19 36.285V.39H46.492v37.632l15.172 72.282 3.535 17.117h9.75V95.664z"/></svg>
